; generated by OrcaSlicer 2.1.1 on 2024-10-25 at 08:41:25
;FLAVOR:Marlin
;TIME:6804
;Filament used: 14.746660
;Layer height: 0.36
;MINX:0.000
;MINY:0.000
;MINZ:0.000
;MAXX:0.000
;MAXY:0.000
;MAXZ:0.000
;POSTPROCESSED
;Header generated for the MRiscoC Professional Firmware
;https://github.com/mriscoc/Ender3V2S1; HEADER_BLOCK_START
; total layer number: 83
; filament_density: 1.24
; filament_diameter: 1.75
; max_z_height: 29.84
; HEADER_BLOCK_END

; THUMBNAIL_BLOCK_START

;
; THUMBNAIL_BLOCK_END

; external perimeters extrusion width = 0.52mm
; perimeters extrusion width = 0.55mm
; infill extrusion width = 0.55mm
; solid infill extrusion width = 0.55mm
; top infill extrusion width = 0.50mm
; first layer extrusion width = 0.52mm

; external perimeters extrusion width = 0.52mm
; perimeters extrusion width = 0.55mm
; infill extrusion width = 0.55mm
; solid infill extrusion width = 0.55mm
; top infill extrusion width = 0.50mm
; first layer extrusion width = 0.52mm

; external perimeters extrusion width = 0.52mm
; perimeters extrusion width = 0.55mm
; infill extrusion width = 0.55mm
; solid infill extrusion width = 0.55mm
; top infill extrusion width = 0.50mm
; first layer extrusion width = 0.52mm

; external perimeters extrusion width = 0.52mm
; perimeters extrusion width = 0.55mm
; infill extrusion width = 0.55mm
; solid infill extrusion width = 0.55mm
; top infill extrusion width = 0.50mm
; first layer extrusion width = 0.52mm

; external perimeters extrusion width = 0.52mm
; perimeters extrusion width = 0.55mm
; infill extrusion width = 0.55mm
; solid infill extrusion width = 0.55mm
; top infill extrusion width = 0.50mm
; first layer extrusion width = 0.52mm

; external perimeters extrusion width = 0.52mm
; perimeters extrusion width = 0.55mm
; infill extrusion width = 0.55mm
; solid infill extrusion width = 0.55mm
; top infill extrusion width = 0.50mm
; first layer extrusion width = 0.52mm

; EXECUTABLE_BLOCK_START
M73 P0 R113
M201 X2500 Y2500 Z1000 E8000
M203 X500 Y500 Z10 E60
M204 P2500 R2000 T5000 ; sets acceleration (P, T) and retract acceleration (R), mm/sec^2
M205 X8.00 Y8.00 Z0.40 E5.00 ; sets the jerk limits, mm/sec
;TYPE:Custom
G90 ; use absolute coordinates
M83 ; extruder relative mode
M140 S60 ; set final bed temp
M104 S150 ; set temporary nozzle temp to prevent oozing during homing
G4 S10 ; allow partial nozzle warmup
G28 ; home all axis
G29 L65.1406 F25 R161.558 B180 S12000 ; probes printbed with 25 mm boundaries or first layer + 10mm on each side
M104 S215 ; set final nozzle temp
G1 Z50 F240
G1 X2 Y10 F3000
M190 S60 ; wait for bed temp to stabilize
M109 S215 ; wait for nozzle temp to stabilize
; Prepare nozzle + intro line
G1 Z2 F6000
G1 Y3.89705 X70.1406 F11000 ; go on start position
G1 Z0.300 F6000
G1 X70.1406 E5 F500.0 ; go on start position
G92 E0 ; Set extrusion distance to 0
G1 Y63.8971 E12.0  F1000 ; intro line
G1 X71.1406 Z0.400 F10000
G1 Y3.89705 E20  F1000 ; intro line
G92 E0 ; Set extrusion distance to 0
G90 ; switch back to absolute mode
G90
G21
M83 ; use relative distances for extrusion
; filament start gcode
;LAYER_CHANGE
;Z:0.32
;HEIGHT:0.32
;BEFORE_LAYER_CHANGE
;0.32
G92 E0

G1 E-5 F3000
;_SET_FAN_SPEED_CHANGING_LAYER
M204 P500
; printing object top.stl id:18446744069414584320 copy 0
M204 T500
M73 P0 R112
G1 Z.4 F18000
G1 X123.6 Y107.755
G1 Z.4
G1 Z.32
G1 E5 F3000
;TYPE:Inner wall
;WIDTH:0.525
G1 F900
G1 X123.674 Y107.712 E.00469
G1 X124.2 Y107.445 E.03222
G1 X124.742 Y107.212 E.03226
G1 X125.214 Y107.042 E.02742
G1 X125.866 Y106.849 E.03711
G1 X126.439 Y106.722 E.0321
G1 X127.021 Y106.63 E.03222
G1 X127.609 Y106.575 E.03222
G1 X128.209 Y106.556 E.03283
G1 X141.477 Y106.559 E.72493
G1 X141.987 Y106.575 E.02791
G1 X142.575 Y106.63 E.03222
G1 X143.155 Y106.722 E.03209
G1 X143.817 Y106.873 E.03711
G1 X144.299 Y107.013 E.02742
G1 X144.853 Y107.212 E.03214
G1 X145.475 Y107.483 E.0371
G1 X145.922 Y107.711 E.02741
G1 X146.429 Y108.009 E.03217
G1 X146.99 Y108.392 E.03708
G1 X147.386 Y108.699 E.02739
G1 X147.83 Y109.087 E.03221
G1 X148.308 Y109.566 E.03698
G1 X148.696 Y110.008 E.03214
G1 X149.056 Y110.477 E.03228
G1 X149.338 Y110.891 E.0274
G1 X149.685 Y111.475 E.03708
G1 X149.951 Y112 E.03216
G1 X150.15 Y112.46 E.02741
G1 X150.383 Y113.098 E.0371
G1 X150.546 Y113.663 E.03212
G1 X150.655 Y114.153 E.02743
G1 X150.765 Y114.823 E.03712
G1 X150.82 Y115.408 E.03209
G1 X150.839 Y116.121 E.03899
G1 X150.839 Y185.983 E3.8172
G1 X150.813 Y186.674 E.03774
G1 X150.765 Y187.174 E.02745
G1 X150.674 Y187.757 E.03223
G1 X150.546 Y188.332 E.03222
G1 X150.382 Y188.899 E.03222
G1 X150.184 Y189.452 E.03211
G1 X149.912 Y190.074 E.0371
G1 X149.684 Y190.521 E.02741
G1 X149.385 Y191.03 E.03227
G1 X149.055 Y191.519 E.03222
G1 X148.696 Y191.986 E.03222
G1 X148.308 Y192.429 E.03214
G1 X147.83 Y192.908 E.03698
G1 X147.387 Y193.295 E.03214
G1 X146.92 Y193.655 E.03222
G1 X146.431 Y193.984 E.03222
G1 X145.923 Y194.283 E.03222
G1 X145.396 Y194.55 E.03222
G1 X144.855 Y194.783 E.03222
G1 X144.299 Y194.981 E.03222
G1 X143.733 Y195.145 E.03222
G1 X143.157 Y195.273 E.03224
G1 X142.661 Y195.351 E.02744
G1 X141.985 Y195.42 E.03712
G1 X141.387 Y195.439 E.0327
G1 X128.212 Y195.439 E.71986
G1 X127.522 Y195.412 E.03774
G1 X127.022 Y195.365 E.02745
G1 X126.439 Y195.273 E.03223
G1 X125.866 Y195.145 E.0321
G1 X125.214 Y194.953 E.03711
G1 X124.742 Y194.783 E.02742
G1 X124.2 Y194.55 E.03226
G1 X123.675 Y194.284 E.03212
G1 X123.092 Y193.937 E.03708
G1 X122.677 Y193.655 E.0274
G1 X122.209 Y193.295 E.03228
G1 X121.766 Y192.908 E.03214
G1 X121.288 Y192.429 E.03698
G1 X120.901 Y191.986 E.03214
G1 X120.54 Y191.518 E.03229
G1 X120.258 Y191.103 E.0274
G1 X119.911 Y190.52 E.03708
G1 X119.646 Y189.996 E.03212
G1 X119.413 Y189.454 E.03222
G1 X119.214 Y188.898 E.03225
G1 X119.074 Y188.416 E.02743
G1 X118.922 Y187.754 E.03711
G1 X118.831 Y187.174 E.03209
G1 X118.776 Y186.587 E.03222
G1 X118.757 Y185.986 E.03284
G1 X118.757 Y116.011 E3.82336
G1 X118.784 Y115.321 E.03774
G1 X118.831 Y114.821 E.02745
G1 X118.923 Y114.238 E.03223
G1 X119.051 Y113.663 E.03222
G1 X119.214 Y113.096 E.03222
G1 X119.413 Y112.541 E.03222
G1 X119.646 Y111.999 E.03222
G1 X119.912 Y111.473 E.03222
G1 X120.211 Y110.964 E.03222
G1 X120.54 Y110.477 E.03213
G1 X120.955 Y109.943 E.03698
G1 X121.346 Y109.503 E.03215
G1 X121.765 Y109.088 E.03222
G1 X122.209 Y108.7 E.03222
G1 X122.676 Y108.34 E.03222
G1 X123.165 Y108.01 E.03222
G1 X123.556 Y107.78 E.0248
G1 X123.368 Y107.362 F18000
;TYPE:Outer wall
G1 F900
G1 X123.455 Y107.311 E.00547
G1 X124.006 Y107.032 E.03378
G1 X124.575 Y106.787 E.03379
G1 X125.072 Y106.608 E.0289
G1 X125.751 Y106.407 E.03869
G1 X126.354 Y106.273 E.03373
G1 X126.965 Y106.177 E.03378
G1 X127.58 Y106.119 E.03378
G1 X128.202 Y106.1 E.034
G1 X140.6 Y106.102 E.67742
G1 X141.778 Y106.112 E.06434
G1 X142.392 Y106.155 E.03366
G1 X142.978 Y106.232 E.03227
G1 X143.714 Y106.382 E.04106
G1 X144.212 Y106.513 E.02811
G1 X144.77 Y106.697 E.03212
G1 X145.457 Y106.978 E.04055
G1 X145.932 Y107.204 E.02872
G1 X146.445 Y107.489 E.03208
G1 X147.06 Y107.887 E.04003
G1 X147.493 Y108.204 E.02933
G1 X147.943 Y108.58 E.03205
G1 X148.455 Y109.067 E.03861
G1 X148.886 Y109.533 E.03466
G1 X149.283 Y110.024 E.03449
G1 X149.589 Y110.449 E.02862
G1 X149.948 Y111.025 E.0371
G1 X150.257 Y111.594 E.03538
G1 X150.482 Y112.08 E.02925
G1 X150.724 Y112.704 E.03658
G1 X150.921 Y113.32 E.03532
G1 X151.055 Y113.85 E.02986
G1 X151.175 Y114.499 E.03609
G1 X151.244 Y115.033 E.02939
G1 X151.284 Y115.621 E.03221
G1 X151.296 Y116.121 E.02735
G1 X151.296 Y185.992 E3.81768
G1 X151.268 Y186.704 E.03892
G1 X151.218 Y187.231 E.02891
G1 X151.122 Y187.842 E.03378
G1 X150.988 Y188.445 E.03378
G1 X150.816 Y189.039 E.03378
G1 X150.608 Y189.62 E.03374
G1 X150.325 Y190.269 E.03869
G1 X150.085 Y190.74 E.02889
G1 X149.771 Y191.274 E.0338
G1 X149.426 Y191.786 E.03378
G1 X149.048 Y192.276 E.03378
G1 X148.642 Y192.741 E.03375
G1 X148.142 Y193.241 E.03864
G1 X147.677 Y193.648 E.03375
G1 X147.187 Y194.025 E.03378
G1 X146.674 Y194.371 E.03378
G1 X146.141 Y194.684 E.03378
G1 X145.59 Y194.963 E.03378
G1 X145.022 Y195.207 E.03378
G1 X144.44 Y195.416 E.03378
G1 X143.846 Y195.587 E.03378
G1 X143.242 Y195.721 E.03379
G1 X142.72 Y195.804 E.02891
G1 X142.015 Y195.875 E.03869
G1 X141.394 Y195.895 E.03395
G1 X128.203 Y195.895 E.72073
G1 X127.491 Y195.867 E.03892
G1 X126.965 Y195.818 E.02891
G1 X126.354 Y195.721 E.03378
G1 X125.751 Y195.587 E.03373
G1 X125.072 Y195.387 E.03869
G1 X124.575 Y195.207 E.0289
G1 X124.006 Y194.963 E.03379
G1 X123.455 Y194.684 E.03374
G1 X122.847 Y194.322 E.03868
G1 X122.41 Y194.025 E.02889
G1 X121.919 Y193.648 E.0338
G1 X121.454 Y193.241 E.03375
G1 X120.954 Y192.741 E.03864
G1 X120.548 Y192.276 E.03375
G1 X120.17 Y191.786 E.0338
G1 X119.873 Y191.349 E.02889
G1 X119.511 Y190.74 E.03868
G1 X119.232 Y190.189 E.03374
G1 X118.988 Y189.621 E.03378
G1 X118.78 Y189.039 E.03379
G1 X118.632 Y188.531 E.0289
G1 X118.474 Y187.841 E.03869
G1 X118.378 Y187.231 E.03373
G1 X118.32 Y186.615 E.03378
G1 X118.301 Y185.993 E.03401
G1 X118.301 Y116.002 E3.82423
G1 X118.328 Y115.291 E.03892
G1 X118.378 Y114.764 E.02891
G1 X118.474 Y114.153 E.03378
G1 X118.608 Y113.55 E.03378
G1 X118.78 Y112.956 E.03378
G1 X118.988 Y112.374 E.03378
G1 X119.232 Y111.806 E.03378
G1 X119.512 Y111.254 E.03378
G1 X119.825 Y110.721 E.03378
G1 X120.17 Y110.209 E.03375
G1 X120.604 Y109.651 E.03864
G1 X121.015 Y109.189 E.03375
G1 X121.454 Y108.754 E.03378
G1 X121.919 Y108.347 E.03378
G1 X122.409 Y107.97 E.03378
G1 X122.922 Y107.624 E.03378
G1 X123.325 Y107.387 E.02558
G1 E-3.5 F3000
;WIPE_START
G1 F900
G1 X123.455 Y107.311 E-.22518
G1 X124.006 Y107.032 E-.9274
G1 X124.219 Y106.94 E-.34743
;WIPE_END
G1 Z.72 F18000
G1 X132.159 Y119.931 Z.72
G1 Z.32
G1 E5 F3000
;TYPE:Inner wall
G1 F900
G1 X132.197 Y119.748 E.01025
G1 X132.306 Y119.575 E.01115
G1 X132.546 Y119.398 E.0163
G1 X132.824 Y119.339 E.01553
G1 X136.773 Y119.339 E.21576
G1 X137.055 Y119.4 E.01581
G1 X137.302 Y119.59 E.01704
G1 X137.457 Y119.911 E.01948
G1 X137.457 Y181.972 E3.39092
G1 X137.399 Y182.247 E.01537
G1 X137.214 Y182.494 E.01687
G1 X136.985 Y182.622 E.01435
G1 X136.772 Y182.656 E.01175
G1 X132.824 Y182.656 E.21575
G1 X132.547 Y182.598 E.01543
G1 X132.294 Y182.405 E.01743
G1 X132.139 Y182.083 E.01948
G1 X132.139 Y120.023 E3.39092
G1 X132.148 Y119.98 E.00239
G1 X132.596 Y120.023 F18000
;TYPE:Outer wall
G1 F900
G1 X132.651 Y119.874 E.00871
G1 X132.802 Y119.795 E.0093
G1 X136.772 Y119.795 E.21694
G1 X136.938 Y119.866 E.00984
G1 X137.001 Y120.023 E.00924
G1 X137.001 Y181.972 E3.38481
G1 X136.931 Y182.136 E.00976
M73 P1 R112
G1 X136.772 Y182.2 E.00932
G1 X132.824 Y182.2 E.21575
G1 X132.658 Y182.128 E.00986
G1 X132.596 Y181.972 E.00922
G1 X132.596 Y120.073 E3.38208
G1 E-3.5 F3000
;WIPE_START
G1 F900
G1 X132.651 Y119.874 E-.31037
G1 X132.802 Y119.795 E-.25533
G1 X133.425 Y119.795 E-.9343
;WIPE_END
G1 Z.72 F18000
G1 X146.438 Y108.181 Z.72
G1 Z.32
G1 E5 F3000
;TYPE:Bottom surface
;WIDTH:0.527084
G1 F1200
G1 X148.069 Y109.812 E.12659
G1 X148.431 Y110.226 E.03017
G1 X148.779 Y110.677 E.03129
G1 X149.049 Y111.075 E.0264
G1 X149.385 Y111.64 E.03604
G1 X149.524 Y111.916 E.01698
G1 X145.478 Y107.869 E.3141
G1 X144.726 Y107.53 E.04526
G1 X144.359 Y107.398 E.02143
G1 X149.995 Y113.035 E.43751
G1 X150.214 Y113.748 E.04096
G1 X150.258 Y113.946 E.01115
G1 X143.453 Y107.141 E.52823
G1 X143.09 Y107.058 E.02046
G1 X142.653 Y106.989 E.02428
G1 X150.405 Y114.741 E.60176
G1 X150.48 Y115.464 E.03989
G1 X141.931 Y106.916 E.66358
G1 X141.268 Y106.901 E.03639
G1 X150.497 Y116.13 E.71636
G1 X150.497 Y116.778 E.03558
G1 X140.62 Y106.901 E.76669
G1 X139.972 Y106.901 E.03559
G1 X150.497 Y117.426 E.81702
G1 X150.497 Y118.075 E.03558
G1 X139.323 Y106.901 E.86736
G1 X138.675 Y106.901 E.03559
G1 X150.497 Y118.723 E.91769
G1 X150.497 Y119.371 E.03558
G1 X138.026 Y106.9 E.96802
G1 X137.378 Y106.9 E.03559
G1 X150.497 Y120.019 E1.01836
G1 X150.497 Y120.668 E.03558
M73 P1 R111
G1 X136.729 Y106.9 E1.06869
G1 X136.081 Y106.9 E.03559
G1 X150.497 Y121.316 E1.11902
G1 X150.497 Y121.964 E.03558
G1 X135.433 Y106.9 E1.16936
G1 X134.784 Y106.9 E.03559
G1 X150.497 Y122.613 E1.21969
G1 X150.497 Y123.261 E.03558
G1 X134.136 Y106.9 E1.27002
G1 X133.487 Y106.9 E.03559
G1 X150.497 Y123.909 E1.32036
G1 X150.497 Y124.557 E.03558
G1 X132.839 Y106.899 E1.37069
G1 X132.191 Y106.899 E.03559
G1 X150.497 Y125.206 E1.42102
G1 X150.497 Y125.854 E.03558
G1 X131.542 Y106.899 E1.47136
G1 X130.894 Y106.899 E.03559
G1 X150.497 Y126.502 E1.52169
G1 X150.497 Y127.151 E.03558
G1 X130.245 Y106.899 E1.57202
G1 X129.597 Y106.899 E.03559
G1 X150.497 Y127.799 E1.62236
G1 X150.497 Y128.447 E.03558
G1 X128.948 Y106.899 E1.67269
G1 X128.301 Y106.899 E.03556
G1 X150.497 Y129.095 E1.72298
G1 X150.497 Y129.744 E.03558
G1 X127.669 Y106.916 E1.77201
G1 X127.074 Y106.969 E.03279
G1 X150.497 Y130.392 E1.8182
G1 X150.497 Y131.04 E.03558
G1 X126.513 Y107.057 E1.86171
G1 X125.982 Y107.174 E.02985
G1 X150.497 Y131.689 E1.90293
G1 X150.497 Y132.337 E.03558
G1 X125.48 Y107.32 E1.9419
G1 X124.996 Y107.484 E.02806
G1 X136.508 Y118.996 E.89361
G1 X135.86 Y118.996 E.03558
G1 X124.536 Y107.673 E.87896
G1 X124.096 Y107.881 E.02672
G1 X135.211 Y118.996 E.8628
G1 X134.563 Y118.996 E.03558
G1 X123.675 Y108.108 E.8452
G1 X123.271 Y108.352 E.02592
G1 X133.915 Y118.996 E.82625
G1 X133.267 Y118.996 E.03558
G1 X122.884 Y108.613 E.80598
G1 X122.517 Y108.895 E.02538
G1 X132.637 Y119.015 E.7856
G1 X132.407 Y119.084 E.01321
G1 X132.191 Y119.218 E.01391
G1 X122.166 Y109.192 E.7782
G1 X121.831 Y109.505 E.02518
G1 X131.902 Y119.576 E.78177
G1 X131.819 Y119.81 E.0136
G1 X131.797 Y120.12 E.01706
G1 X121.511 Y109.834 E.79846
G1 X121.206 Y110.178 E.02521
G1 X131.797 Y120.768 E.82209
G1 X131.797 Y121.417 E.03559
G1 X120.923 Y110.542 E.84411
G1 X120.653 Y110.921 E.02552
G1 X131.797 Y122.065 E.86504
G1 X131.797 Y122.713 E.03559
G1 X120.401 Y111.317 E.88463
G1 X120.166 Y111.73 E.02609
G1 X131.797 Y123.362 E.90289
G1 X131.797 Y124.01 E.03559
G1 X119.949 Y112.161 E.91974
G1 X119.754 Y112.615 E.02709
G1 X131.797 Y124.658 E.93488
G1 X131.797 Y125.307 E.03559
G1 X119.58 Y113.089 E.94836
G1 X119.429 Y113.586 E.02852
G1 X131.797 Y125.955 E.96011
G1 X131.798 Y126.603 E.03559
G1 X119.302 Y114.108 E.96994
G1 X119.259 Y114.302 E.01091
G1 X119.203 Y114.657 E.01973
G1 X131.798 Y127.252 E.97764
G1 X131.798 Y127.9 E.03559
G1 X119.135 Y115.238 E.98291
G1 X119.105 Y115.856 E.03399
G1 X131.798 Y128.548 E.98523
G1 X131.798 Y129.197 E.03559
G1 X119.099 Y116.498 E.98572
G1 X119.099 Y117.146 E.03558
G1 X131.798 Y129.845 E.98572
G1 X131.798 Y130.493 E.03559
G1 X119.099 Y117.795 E.98573
G1 X119.099 Y118.443 E.03558
G1 X131.798 Y131.142 E.98573
G1 X131.798 Y131.79 E.03559
M73 P2 R111
G1 X119.099 Y119.091 E.98573
G1 X119.099 Y119.74 E.03558
G1 X131.798 Y132.438 E.98574
G1 X131.798 Y133.087 E.03559
G1 X119.099 Y120.388 E.98574
G1 X119.099 Y121.036 E.03558
G1 X131.798 Y133.735 E.98575
G1 X131.798 Y134.383 E.03559
G1 X119.099 Y121.684 E.98575
G1 X119.099 Y122.333 E.03558
G1 X131.798 Y135.032 E.98576
G1 X131.798 Y135.68 E.03559
G1 X119.099 Y122.981 E.98576
G1 X119.099 Y123.629 E.03558
G1 X131.798 Y136.328 E.98576
G1 X131.798 Y136.977 E.03559
G1 X119.099 Y124.278 E.98577
G1 X119.099 Y124.926 E.03558
G1 X131.798 Y137.625 E.98577
M73 P2 R110
G1 X131.798 Y138.274 E.03559
G1 X119.099 Y125.574 E.98578
G1 X119.099 Y126.222 E.03558
G1 X131.799 Y138.922 E.98578
G1 X131.799 Y139.57 E.03559
G1 X119.099 Y126.871 E.98578
G1 X119.099 Y127.519 E.03558
G1 X131.799 Y140.219 E.98579
G1 X131.799 Y140.867 E.03559
G1 X119.099 Y128.167 E.98579
G1 X119.099 Y128.816 E.03558
G1 X131.799 Y141.515 E.9858
G1 X131.799 Y142.164 E.03559
G1 X119.099 Y129.464 E.9858
G1 X119.099 Y130.112 E.03558
G1 X131.799 Y142.812 E.98581
G1 X131.799 Y143.46 E.03559
G1 X119.099 Y130.76 E.98581
G1 X119.099 Y131.409 E.03558
G1 X131.799 Y144.109 E.98581
G1 X131.799 Y144.757 E.03559
G1 X119.099 Y132.057 E.98582
G1 X119.099 Y132.705 E.03558
G1 X131.799 Y145.405 E.98582
G1 X131.799 Y146.054 E.03559
G1 X119.099 Y133.354 E.98583
G1 X119.099 Y134.002 E.03558
G1 X131.799 Y146.702 E.98583
