; generated by OrcaSlicer 2.1.1 on 2024-10-25 at 08:41:18
;FLAVOR:Marlin
;TIME:10195
;Filament used: 22.122480
;Layer height: 0.36
;MINX:0.000
;MINY:0.000
;MINZ:0.000
;MAXX:0.000
;MAXY:0.000
;MAXZ:0.000
;POSTPROCESSED
;Header generated for the MRiscoC Professional Firmware
;https://github.com/mriscoc/Ender3V2S1; HEADER_BLOCK_START
; total layer number: 83
; filament_density: 1.24
; filament_diameter: 1.75
; max_z_height: 29.84
; HEADER_BLOCK_END

; THUMBNAIL_BLOCK_START

;
; THUMBNAIL_BLOCK_END

; external perimeters extrusion width = 0.52mm
; perimeters extrusion width = 0.55mm
; infill extrusion width = 0.55mm
; solid infill extrusion width = 0.55mm
; top infill extrusion width = 0.50mm
; first layer extrusion width = 0.52mm

; external perimeters extrusion width = 0.52mm
; perimeters extrusion width = 0.55mm
; infill extrusion width = 0.55mm
; solid infill extrusion width = 0.55mm
; top infill extrusion width = 0.50mm
; first layer extrusion width = 0.52mm

; external perimeters extrusion width = 0.52mm
; perimeters extrusion width = 0.55mm
; infill extrusion width = 0.55mm
; solid infill extrusion width = 0.55mm
; top infill extrusion width = 0.50mm
; first layer extrusion width = 0.52mm

; external perimeters extrusion width = 0.52mm
; perimeters extrusion width = 0.55mm
; infill extrusion width = 0.55mm
; solid infill extrusion width = 0.55mm
; top infill extrusion width = 0.50mm
; first layer extrusion width = 0.52mm

; external perimeters extrusion width = 0.52mm
; perimeters extrusion width = 0.55mm
; infill extrusion width = 0.55mm
; solid infill extrusion width = 0.55mm
; top infill extrusion width = 0.50mm
; first layer extrusion width = 0.52mm

; external perimeters extrusion width = 0.52mm
; perimeters extrusion width = 0.55mm
; infill extrusion width = 0.55mm
; solid infill extrusion width = 0.55mm
; top infill extrusion width = 0.50mm
; first layer extrusion width = 0.52mm

; external perimeters extrusion width = 0.52mm
; perimeters extrusion width = 0.55mm
; infill extrusion width = 0.55mm
; solid infill extrusion width = 0.55mm
; top infill extrusion width = 0.50mm
; first layer extrusion width = 0.52mm

; external perimeters extrusion width = 0.52mm
; perimeters extrusion width = 0.55mm
; infill extrusion width = 0.55mm
; solid infill extrusion width = 0.55mm
; top infill extrusion width = 0.50mm
; first layer extrusion width = 0.52mm

; external perimeters extrusion width = 0.52mm
; perimeters extrusion width = 0.55mm
; infill extrusion width = 0.55mm
; solid infill extrusion width = 0.55mm
; top infill extrusion width = 0.50mm
; first layer extrusion width = 0.52mm

; EXECUTABLE_BLOCK_START
M73 P0 R169
M201 X2500 Y2500 Z1000 E8000
M203 X500 Y500 Z10 E60
M204 P2500 R2000 T5000 ; sets acceleration (P, T) and retract acceleration (R), mm/sec^2
M205 X8.00 Y8.00 Z0.40 E5.00 ; sets the jerk limits, mm/sec
;TYPE:Custom
G90 ; use absolute coordinates
M83 ; extruder relative mode
M140 S60 ; set final bed temp
M104 S150 ; set temporary nozzle temp to prevent oozing during homing
G4 S10 ; allow partial nozzle warmup
G28 ; home all axis
G29 L36.2958 F25 R173.313 B180 S12000 ; probes printbed with 25 mm boundaries or first layer + 10mm on each side
M104 S215 ; set final nozzle temp
G1 Z50 F240
G1 X2 Y10 F3000
M190 S60 ; wait for bed temp to stabilize
M109 S215 ; wait for nozzle temp to stabilize
; Prepare nozzle + intro line
G1 Z2 F6000
G1 Y5.20323 X41.2958 F11000 ; go on start position
G1 Z0.300 F6000
G1 X41.2958 E5 F500.0 ; go on start position
G92 E0 ; Set extrusion distance to 0
G1 Y65.2032 E12.0  F1000 ; intro line
G1 X42.2958 Z0.400 F10000
G1 Y5.20323 E20  F1000 ; intro line
G92 E0 ; Set extrusion distance to 0
G90 ; switch back to absolute mode
G90
G21
M83 ; use relative distances for extrusion
; filament start gcode
;LAYER_CHANGE
;Z:0.32
;HEIGHT:0.32
;BEFORE_LAYER_CHANGE
;0.32
G92 E0

G1 E-5 F3000
;_SET_FAN_SPEED_CHANGING_LAYER
M204 P500
; printing object top.stl id:262 copy 0
M204 T500
G1 Z.4 F18000
G1 X135.355 Y109.061
G1 Z.4
G1 Z.32
G1 E5 F3000
;TYPE:Inner wall
;WIDTH:0.525
G1 F900
G1 X135.429 Y109.018 E.00469
G1 X135.955 Y108.751 E.03222
G1 X136.497 Y108.518 E.03226
G1 X136.969 Y108.348 E.02742
G1 X137.621 Y108.156 E.03711
G1 X138.194 Y108.028 E.0321
G1 X138.777 Y107.936 E.03222
G1 X139.364 Y107.881 E.03222
G1 X139.964 Y107.862 E.03283
G1 X153.232 Y107.865 E.72493
G1 X153.743 Y107.881 E.02791
G1 X154.33 Y107.936 E.03222
G1 X154.91 Y108.028 E.03209
G1 X155.572 Y108.18 E.03711
G1 X156.054 Y108.32 E.02742
G1 X156.608 Y108.518 E.03214
G1 X157.23 Y108.79 E.0371
G1 X157.677 Y109.017 E.02741
G1 X158.185 Y109.316 E.03217
G1 X158.745 Y109.698 E.03708
G1 X159.141 Y110.005 E.02739
G1 X159.585 Y110.393 E.03221
G1 X160.063 Y110.872 E.03698
G1 X160.451 Y111.315 E.03214
G1 X160.811 Y111.783 E.03228
G1 X161.093 Y112.198 E.0274
G1 X161.44 Y112.781 E.03708
G1 X161.706 Y113.306 E.03216
G1 X161.905 Y113.766 E.02741
G1 X162.138 Y114.404 E.0371
G1 X162.301 Y114.969 E.03212
G1 X162.41 Y115.459 E.02743
G1 X162.521 Y116.129 E.03712
G1 X162.576 Y116.714 E.03209
G1 X162.594 Y117.427 E.03899
G1 X162.594 Y187.29 E3.8172
G1 X162.568 Y187.98 E.03774
G1 X162.52 Y188.48 E.02745
G1 X162.429 Y189.063 E.03223
G1 X162.301 Y189.638 E.03222
G1 X162.137 Y190.205 E.03222
G1 X161.939 Y190.758 E.03211
G1 X161.667 Y191.38 E.0371
G1 X161.439 Y191.827 E.02741
G1 X161.14 Y192.336 E.03227
G1 X160.81 Y192.825 E.03222
G1 X160.451 Y193.293 E.03222
G1 X160.063 Y193.735 E.03214
G1 X159.585 Y194.214 E.03698
G1 X159.142 Y194.601 E.03214
G1 X158.675 Y194.961 E.03222
G1 X158.186 Y195.291 E.03222
G1 X157.678 Y195.589 E.03222
G1 X157.152 Y195.856 E.03222
G1 X156.61 Y196.089 E.03222
G1 X156.055 Y196.287 E.03222
G1 X155.488 Y196.451 E.03222
G1 X154.912 Y196.579 E.03224
G1 X154.416 Y196.658 E.02744
G1 X153.74 Y196.726 E.03712
G1 X153.142 Y196.745 E.0327
G1 X139.967 Y196.745 E.71986
G1 X139.277 Y196.718 E.03774
G1 X138.777 Y196.671 E.02745
G1 X138.194 Y196.579 E.03223
G1 X137.621 Y196.452 E.0321
G1 X136.969 Y196.259 E.03711
G1 X136.497 Y196.089 E.02742
G1 X135.955 Y195.856 E.03226
G1 X135.43 Y195.59 E.03212
G1 X134.847 Y195.243 E.03708
G1 X134.432 Y194.961 E.0274
G1 X133.964 Y194.601 E.03228
G1 X133.522 Y194.214 E.03214
G1 X133.043 Y193.735 E.03698
G1 X132.656 Y193.293 E.03214
G1 X132.295 Y192.824 E.03229
G1 X132.013 Y192.41 E.0274
G1 X131.667 Y191.826 E.03708
G1 X131.401 Y191.302 E.03212
G1 X131.168 Y190.76 E.03222
G1 X130.969 Y190.204 E.03225
G1 X130.829 Y189.722 E.02743
G1 X130.677 Y189.06 E.03711
G1 X130.586 Y188.48 E.03209
G1 X130.531 Y187.893 E.03222
G1 X130.512 Y187.292 E.03284
G1 X130.512 Y117.317 E3.82336
G1 X130.539 Y116.627 E.03774
G1 X130.586 Y116.127 E.02745
G1 X130.678 Y115.544 E.03223
G1 X130.806 Y114.969 E.03222
G1 X130.969 Y114.402 E.03222
G1 X131.168 Y113.847 E.03222
G1 X131.401 Y113.305 E.03222
G1 X131.667 Y112.779 E.03222
G1 X131.966 Y112.271 E.03222
G1 X132.295 Y111.783 E.03213
G1 X132.711 Y111.249 E.03698
G1 X133.102 Y110.81 E.03215
G1 X133.52 Y110.394 E.03222
G1 X133.964 Y110.006 E.03222
G1 X134.431 Y109.646 E.03222
G1 X134.92 Y109.316 E.03222
G1 X135.312 Y109.087 E.0248
G1 X135.124 Y108.668 F18000
;TYPE:Outer wall
G1 F900
G1 X135.21 Y108.617 E.00547
G1 X135.762 Y108.338 E.03378
G1 X136.33 Y108.093 E.03379
G1 X136.827 Y107.914 E.0289
G1 X137.506 Y107.714 E.03869
G1 X138.109 Y107.58 E.03373
G1 X138.72 Y107.483 E.03378
G1 X139.335 Y107.426 E.03378
G1 X139.957 Y107.406 E.034
G1 X152.355 Y107.409 E.67742
G1 X153.533 Y107.418 E.06434
G1 X154.148 Y107.461 E.03366
G1 X154.733 Y107.538 E.03227
G1 X155.469 Y107.688 E.04106
G1 X155.967 Y107.819 E.02811
G1 X156.525 Y108.003 E.03212
G1 X157.212 Y108.284 E.04055
G1 X157.687 Y108.51 E.02872
G1 X158.2 Y108.795 E.03208
G1 X158.815 Y109.193 E.04003
G1 X159.248 Y109.511 E.02933
G1 X159.698 Y109.886 E.03205
G1 X160.21 Y110.373 E.03861
G1 X160.641 Y110.839 E.03466
G1 X161.038 Y111.33 E.03449
G1 X161.344 Y111.755 E.02862
G1 X161.703 Y112.331 E.0371
G1 X162.012 Y112.901 E.03538
G1 X162.238 Y113.386 E.02925
G1 X162.48 Y114.01 E.03658
G1 X162.677 Y114.626 E.03532
G1 X162.81 Y115.156 E.02986
G1 X162.93 Y115.805 E.03609
G1 X162.999 Y116.339 E.02939
G1 X163.039 Y116.927 E.03221
G1 X163.051 Y117.427 E.02735
G1 X163.051 Y187.298 E3.81768
G1 X163.023 Y188.01 E.03892
G1 X162.973 Y188.537 E.02891
G1 X162.877 Y189.148 E.03378
G1 X162.743 Y189.751 E.03378
G1 X162.572 Y190.345 E.03378
G1 X162.363 Y190.927 E.03374
G1 X162.08 Y191.575 E.03869
G1 X161.84 Y192.047 E.02889
G1 X161.527 Y192.58 E.0338
G1 X161.181 Y193.092 E.03378
G1 X160.804 Y193.582 E.03378
G1 X160.397 Y194.047 E.03375
G1 X159.897 Y194.547 E.03864
G1 X159.432 Y194.954 E.03375
G1 X158.942 Y195.331 E.03378
G1 X158.43 Y195.677 E.03378
G1 X157.897 Y195.99 E.03378
G1 X157.345 Y196.269 E.03378
G1 X156.777 Y196.514 E.03378
G1 X156.195 Y196.722 E.03378
G1 X155.601 Y196.893 E.03378
G1 X154.997 Y197.028 E.03379
G1 X154.475 Y197.11 E.02891
G1 X153.77 Y197.182 E.03869
G1 X153.149 Y197.201 E.03395
G1 X139.958 Y197.201 E.72073
G1 X139.247 Y197.174 E.03892
G1 X138.72 Y197.124 E.02891
G1 X138.109 Y197.028 E.03378
G1 X137.506 Y196.894 E.03373
G1 X136.827 Y196.693 E.03869
G1 X136.33 Y196.514 E.0289
G1 X135.762 Y196.269 E.03379
G1 X135.211 Y195.99 E.03374
G1 X134.602 Y195.629 E.03868
G1 X134.165 Y195.331 E.02889
G1 X133.675 Y194.954 E.0338
G1 X133.21 Y194.547 E.03375
G1 X132.71 Y194.047 E.03864
G1 X132.303 Y193.582 E.03375
G1 X131.926 Y193.092 E.0338
G1 X131.628 Y192.655 E.02889
G1 X131.266 Y192.046 E.03868
G1 X130.988 Y191.495 E.03374
G1 X130.743 Y190.927 E.03378
G1 X130.535 Y190.345 E.03379
G1 X130.387 Y189.837 E.0289
G1 X130.229 Y189.147 E.03869
G1 X130.133 Y188.537 E.03373
G1 X130.075 Y187.922 E.03378
G1 X130.056 Y187.299 E.03401
G1 X130.056 Y117.309 E3.82423
G1 X130.083 Y116.597 E.03892
M73 P0 R168
G1 X130.133 Y116.07 E.02891
G1 X130.229 Y115.459 E.03378
G1 X130.363 Y114.856 E.03378
G1 X130.535 Y114.262 E.03378
G1 X130.743 Y113.68 E.03378
G1 X130.988 Y113.112 E.03378
G1 X131.267 Y112.56 E.03378
G1 X131.58 Y112.027 E.03378
G1 X131.925 Y111.515 E.03375
G1 X132.36 Y110.957 E.03864
G1 X132.77 Y110.496 E.03375
G1 X133.209 Y110.06 E.03378
G1 X133.675 Y109.653 E.03378
G1 X134.164 Y109.276 E.03378
G1 X134.677 Y108.93 E.03378
G1 X135.081 Y108.693 E.02558
G1 E-3.5 F3000
;WIPE_START
G1 F900
G1 X135.21 Y108.617 E-.22518
G1 X135.762 Y108.338 E-.9274
G1 X135.974 Y108.246 E-.34743
;WIPE_END
G1 Z.72 F18000
G1 X143.914 Y121.237 Z.72
G1 Z.32
G1 E5 F3000
;TYPE:Inner wall
G1 F900
G1 X143.952 Y121.054 E.01025
G1 X144.061 Y120.881 E.01115
G1 X144.301 Y120.704 E.0163
G1 X144.579 Y120.645 E.01553
G1 X148.528 Y120.645 E.21576
G1 X148.811 Y120.706 E.01581
G1 X149.058 Y120.896 E.01704
G1 X149.212 Y121.218 E.01948
G1 X149.212 Y183.278 E3.39092
G1 X149.154 Y183.553 E.01537
G1 X148.969 Y183.801 E.01687
G1 X148.74 Y183.929 E.01435
G1 X148.528 Y183.962 E.01175
G1 X144.579 Y183.962 E.21575
G1 X144.303 Y183.904 E.01543
G1 X144.049 Y183.711 E.01743
G1 X143.894 Y183.39 E.01948
G1 X143.894 Y121.329 E3.39092
G1 X143.903 Y121.286 E.00239
G1 X144.351 Y121.329 F18000
;TYPE:Outer wall
G1 F900
G1 X144.406 Y121.18 E.00871
G1 X144.557 Y121.101 E.0093
G1 X148.528 Y121.101 E.21694
G1 X148.693 Y121.172 E.00984
G1 X148.756 Y121.329 E.00924
G1 X148.756 Y183.278 E3.38481
G1 X148.686 Y183.442 E.00976
G1 X148.528 Y183.506 E.00932
G1 X144.579 Y183.506 E.21575
G1 X144.413 Y183.435 E.00986
G1 X144.351 Y183.278 E.00922
G1 X144.351 Y121.379 E3.38208
G1 E-3.5 F3000
;WIPE_START
G1 F900
G1 X144.406 Y121.18 E-.31037
G1 X144.557 Y121.101 E-.25533
G1 X145.18 Y121.101 E-.9343
;WIPE_END
G1 Z.72 F18000
G1 X158.193 Y109.487 Z.72
G1 Z.32
G1 E5 F3000
;TYPE:Bottom surface
;WIDTH:0.527084
G1 F1200
G1 X159.824 Y111.118 E.12659
G1 X160.186 Y111.532 E.03017
G1 X160.534 Y111.984 E.03129
G1 X160.804 Y112.381 E.0264
G1 X161.14 Y112.946 E.03604
G1 X161.279 Y113.222 E.01698
G1 X157.233 Y109.175 E.3141
G1 X156.481 Y108.836 E.04526
G1 X156.114 Y108.704 E.02143
G1 X161.75 Y114.341 E.43751
G1 X161.969 Y115.054 E.04096
G1 X162.013 Y115.252 E.01115
G1 X155.208 Y108.447 E.52823
G1 X154.845 Y108.364 E.02046
G1 X154.408 Y108.295 E.02428
G1 X162.16 Y116.047 E.60176
G1 X162.235 Y116.77 E.03989
G1 X153.686 Y108.222 E.66358
G1 X153.024 Y108.207 E.03639
G1 X162.252 Y117.436 E.71636
G1 X162.252 Y118.084 E.03558
G1 X152.375 Y108.207 E.76669
G1 X151.727 Y108.207 E.03559
G1 X162.252 Y118.732 E.81702
G1 X162.252 Y119.381 E.03558
G1 X151.078 Y108.207 E.86736
G1 X150.43 Y108.207 E.03559
G1 X162.252 Y120.029 E.91769
G1 X162.252 Y120.677 E.03558
G1 X149.782 Y108.207 E.96802
G1 X149.133 Y108.207 E.03559
G1 X162.252 Y121.326 E1.01836
G1 X162.252 Y121.974 E.03558
G1 X148.485 Y108.206 E1.06869
G1 X147.836 Y108.206 E.03559
G1 X162.252 Y122.622 E1.11902
G1 X162.252 Y123.27 E.03558
G1 X147.188 Y108.206 E1.16936
G1 X146.539 Y108.206 E.03559
G1 X162.252 Y123.919 E1.21969
G1 X162.252 Y124.567 E.03558
G1 X145.891 Y108.206 E1.27002
G1 X145.243 Y108.206 E.03559
G1 X162.252 Y125.215 E1.32036
G1 X162.252 Y125.864 E.03558
G1 X144.594 Y108.206 E1.37069
G1 X143.946 Y108.205 E.03559
G1 X162.252 Y126.512 E1.42102
G1 X162.252 Y127.16 E.03558
G1 X143.297 Y108.205 E1.47136
G1 X142.649 Y108.205 E.03559
G1 X162.252 Y127.809 E1.52169
G1 X162.252 Y128.457 E.03558
G1 X142 Y108.205 E1.57202
G1 X141.352 Y108.205 E.03559
G1 X162.252 Y129.105 E1.62236
G1 X162.252 Y129.753 E.03558
G1 X140.704 Y108.205 E1.67269
G1 X140.056 Y108.205 E.03556
M73 P1 R168
G1 X162.252 Y130.402 E1.72298
G1 X162.252 Y131.05 E.03558
G1 X139.424 Y108.222 E1.77201
G1 X138.829 Y108.275 E.03279
G1 X162.252 Y131.698 E1.8182
G1 X162.252 Y132.347 E.03558
G1 X138.268 Y108.363 E1.86171
G1 X137.738 Y108.48 E.02985
G1 X162.252 Y132.995 E1.90293
G1 X162.252 Y133.643 E.03558
G1 X137.235 Y108.626 E1.9419
G1 X136.751 Y108.79 E.02806
G1 X148.263 Y120.302 E.89361
G1 X147.615 Y120.302 E.03558
G1 X136.292 Y108.979 E.87896
G1 X135.852 Y109.187 E.02672
G1 X146.967 Y120.302 E.8628
G1 X146.318 Y120.302 E.03558
G1 X135.43 Y109.414 E.8452
G1 X135.026 Y109.658 E.02592
M73 P1 R167
G1 X145.67 Y120.302 E.82625
G1 X145.022 Y120.302 E.03558
G1 X134.639 Y109.919 E.80598
G1 X134.272 Y110.201 E.02538
G1 X144.393 Y120.322 E.7856
G1 X144.162 Y120.39 E.01321
G1 X143.946 Y120.524 E.01391
G1 X133.921 Y110.498 E.7782
G1 X133.586 Y110.811 E.02518
G1 X143.657 Y120.883 E.78177
G1 X143.574 Y121.116 E.0136
G1 X143.552 Y121.426 E.01706
G1 X133.266 Y111.14 E.79846
G1 X132.962 Y111.484 E.02521
G1 X143.552 Y122.074 E.82209
G1 X143.552 Y122.723 E.03559
G1 X132.678 Y111.848 E.84411
G1 X132.408 Y112.227 E.02552
G1 X143.552 Y123.371 E.86504
G1 X143.552 Y124.019 E.03559
G1 X132.156 Y112.623 E.88463
G1 X131.921 Y113.036 E.02609
G1 X143.552 Y124.668 E.90289
G1 X143.552 Y125.316 E.03559
G1 X131.704 Y113.467 E.91974
G1 X131.509 Y113.921 E.02709
G1 X143.553 Y125.964 E.93488
G1 X143.553 Y126.613 E.03559
G1 X131.335 Y114.396 E.94836
G1 X131.184 Y114.893 E.02852
G1 X143.553 Y127.261 E.96011
G1 X143.553 Y127.909 E.03559
G1 X131.057 Y115.414 E.96994
G1 X131.014 Y115.608 E.01091
G1 X130.958 Y115.963 E.01973
G1 X143.553 Y128.558 E.97764
G1 X143.553 Y129.206 E.03559
G1 X130.89 Y116.544 E.98291
G1 X130.861 Y117.162 E.03399
G1 X143.553 Y129.855 E.98523
G1 X143.553 Y130.503 E.03559
G1 X130.854 Y117.804 E.98572
G1 X130.854 Y118.453 E.03558
G1 X143.553 Y131.151 E.98572
G1 X143.553 Y131.8 E.03559
G1 X130.854 Y119.101 E.98573
G1 X130.854 Y119.749 E.03558
G1 X143.553 Y132.448 E.98573
G1 X143.553 Y133.096 E.03559
G1 X130.854 Y120.397 E.98573
G1 X130.854 Y121.046 E.03558
G1 X143.553 Y133.745 E.98574
G1 X143.553 Y134.393 E.03559
G1 X130.854 Y121.694 E.98574
G1 X130.854 Y122.342 E.03558
G1 X143.553 Y135.041 E.98575
G1 X143.553 Y135.69 E.03559
G1 X130.854 Y122.991 E.98575
G1 X130.854 Y123.639 E.03558
G1 X143.553 Y136.338 E.98576
G1 X143.553 Y136.986 E.03559
G1 X130.854 Y124.287 E.98576
G1 X130.854 Y124.935 E.03558
G1 X143.554 Y137.635 E.98576
G1 X143.554 Y138.283 E.03559
G1 X130.854 Y125.584 E.98577
G1 X130.854 Y126.232 E.03558
G1 X143.554 Y138.931 E.98577
G1 X143.554 Y139.58 E.03559
G1 X130.854 Y126.88 E.98578
G1 X130.854 Y127.529 E.03558
G1 X143.554 Y140.228 E.98578
