; generated by OrcaSlicer 2.1.1 on 2024-10-25 at 08:41:29
;FLAVOR:Marlin
;TIME:3410
;Filament used: 7.370830
;Layer height: 0.36
;MINX:0.000
;MINY:0.000
;MINZ:0.000
;MAXX:0.000
;MAXY:0.000
;MAXZ:0.000
;POSTPROCESSED
;Header generated for the MRiscoC Professional Firmware
;https://github.com/mriscoc/Ender3V2S1; HEADER_BLOCK_START
; total layer number: 83
; filament_density: 1.24
; filament_diameter: 1.75
; max_z_height: 29.84
; HEADER_BLOCK_END

; THUMBNAIL_BLOCK_START

;
; THUMBNAIL_BLOCK_END

; external perimeters extrusion width = 0.52mm
; perimeters extrusion width = 0.55mm
; infill extrusion width = 0.55mm
; solid infill extrusion width = 0.55mm
; top infill extrusion width = 0.50mm
; first layer extrusion width = 0.52mm

; external perimeters extrusion width = 0.52mm
; perimeters extrusion width = 0.55mm
; infill extrusion width = 0.55mm
; solid infill extrusion width = 0.55mm
; top infill extrusion width = 0.50mm
; first layer extrusion width = 0.52mm

; external perimeters extrusion width = 0.52mm
; perimeters extrusion width = 0.55mm
; infill extrusion width = 0.55mm
; solid infill extrusion width = 0.55mm
; top infill extrusion width = 0.50mm
; first layer extrusion width = 0.52mm

; EXECUTABLE_BLOCK_START
M73 P0 R56
M201 X2500 Y2500 Z1000 E8000
M203 X500 Y500 Z10 E60
M204 P2500 R2000 T5000 ; sets acceleration (P, T) and retract acceleration (R), mm/sec^2
M205 X8.00 Y8.00 Z0.40 E5.00 ; sets the jerk limits, mm/sec
;TYPE:Custom
G90 ; use absolute coordinates
M83 ; extruder relative mode
M140 S60 ; set final bed temp
M104 S150 ; set temporary nozzle temp to prevent oozing during homing
G4 S10 ; allow partial nozzle warmup
G28 ; home all axis
G29 L84.1678 F25 R139.985 B180 S12000 ; probes printbed with 25 mm boundaries or first layer + 10mm on each side
M104 S215 ; set final nozzle temp
G1 Z50 F240
G1 X2 Y10 F3000
M190 S60 ; wait for bed temp to stabilize
M109 S215 ; wait for nozzle temp to stabilize
; Prepare nozzle + intro line
G1 Z2 F6000
G1 Y2.06008 X89.1678 F11000 ; go on start position
G1 Z0.300 F6000
G1 X89.1678 E5 F500.0 ; go on start position
G92 E0 ; Set extrusion distance to 0
G1 Y62.0601 E12.0  F1000 ; intro line
G1 X90.1678 Z0.400 F10000
G1 Y2.06008 E20  F1000 ; intro line
G92 E0 ; Set extrusion distance to 0
G90 ; switch back to absolute mode
G90
G21
M83 ; use relative distances for extrusion
; filament start gcode
;LAYER_CHANGE
;Z:0.32
;HEIGHT:0.32
;BEFORE_LAYER_CHANGE
;0.32
G92 E0

G1 E-5 F3000
;_SET_FAN_SPEED_CHANGING_LAYER
M204 P500
; printing object base.stl id:10 copy 0
M204 T500
G1 Z.4 F18000
G1 X100.993 Y8.74
G1 Z.4
G1 Z.32
G1 E5 F3000
;TYPE:Inner wall
;WIDTH:0.525
G1 F900
G1 X101.217 Y8.636 E.01345
G1 X101.783 Y8.411 E.03331
G1 X102.362 Y8.22 E.03331
G1 X102.951 Y8.062 E.03331
G1 X103.548 Y7.938 E.03332
G1 X104.151 Y7.85 E.03331
G1 X104.758 Y7.797 E.03331
G1 X105.378 Y7.779 E.03388
G1 X118.536 Y7.783 E.71894
G1 X119.177 Y7.797 E.03504
G1 X119.785 Y7.85 E.03331
G1 X120.388 Y7.938 E.03331
G1 X120.981 Y8.061 E.03312
G1 X122.152 Y8.411 E.06678
G1 X122.716 Y8.635 E.03312
G1 X123.808 Y9.183 E.06678
G1 X124.327 Y9.503 E.03331
G1 X124.827 Y9.853 E.03331
G1 X125.305 Y10.231 E.03331
G1 X125.76 Y10.637 E.03331
G1 X126.191 Y11.068 E.03331
G1 X126.597 Y11.523 E.03331
G1 X126.973 Y11.999 E.03312
G1 X127.645 Y13.02 E.06679
G1 X127.934 Y13.556 E.03331
G1 X128.192 Y14.109 E.03331
G1 X128.417 Y14.675 E.03331
G1 X128.608 Y15.254 E.03331
G1 X128.766 Y15.843 E.03331
G1 X128.889 Y16.44 E.03331
G1 X128.978 Y17.043 E.03331
G1 X129.031 Y17.651 E.03331
G1 X129.049 Y18.425 E.04234
G1 X129.049 Y88.246 E3.81494
G1 X128.978 Y89.477 E.06736
G1 X128.889 Y90.08 E.03331
G1 X128.767 Y90.674 E.03312
G1 X128.417 Y91.845 E.06678
G1 X128.192 Y92.411 E.03331
G1 X127.934 Y92.964 E.03331
G1 X127.645 Y93.501 E.03331
G1 X127.324 Y94.019 E.03331
G1 X126.975 Y94.519 E.03331
G1 X126.597 Y94.997 E.03331
G1 X126.191 Y95.452 E.03331
G1 X125.76 Y95.884 E.03331
M73 P1 R56
G1 X125.305 Y96.289 E.03331
G1 X124.827 Y96.667 E.03331
G1 X124.327 Y97.017 E.03331
G1 X123.808 Y97.337 E.03331
G1 X123.272 Y97.626 E.03331
G1 X122.719 Y97.884 E.03331
G1 X122.152 Y98.109 E.03331
G1 X121.574 Y98.301 E.03331
G1 X120.985 Y98.458 E.03331
G1 X120.391 Y98.581 E.03312
G1 X119.876 Y98.651 E.02843
G1 X119.177 Y98.723 E.03836
G1 X118.557 Y98.741 E.03388
G1 X105.378 Y98.741 E.72009
G1 X104.758 Y98.723 E.03388
G1 X104.151 Y98.67 E.03331
G1 X103.548 Y98.582 E.03331
G1 X102.951 Y98.458 E.03332
G1 X102.362 Y98.301 E.03331
G1 X101.783 Y98.109 E.03331
G1 X101.217 Y97.884 E.03331
G1 X100.664 Y97.626 E.03331
G1 X100.127 Y97.337 E.03331
G1 X99.608 Y97.017 E.03331
G1 X99.109 Y96.667 E.03331
G1 X98.631 Y96.289 E.03331
G1 X98.175 Y95.884 E.03331
G1 X97.744 Y95.452 E.03331
G1 X97.339 Y94.997 E.03331
G1 X96.963 Y94.522 E.03312
G1 X96.291 Y93.501 E.06679
G1 X96.002 Y92.964 E.03331
G1 X95.744 Y92.411 E.03331
G1 X95.519 Y91.845 E.03331
G1 X95.327 Y91.266 E.03331
G1 X95.169 Y90.677 E.03331
G1 X95.046 Y90.08 E.03331
G1 X94.958 Y89.477 E.03331
G1 X94.905 Y88.869 E.03331
G1 X94.887 Y88.25 E.03388
G1 X94.887 Y18.274 E3.8234
G1 X94.958 Y17.043 E.06736
G1 X95.046 Y16.44 E.03331
G1 X95.169 Y15.846 E.03312
G1 X95.519 Y14.675 E.06678
G1 X95.744 Y14.109 E.03331
G1 X96.002 Y13.556 E.03331
G1 X96.291 Y13.02 E.03331
G1 X96.611 Y12.501 E.03331
G1 X96.961 Y12.001 E.03331
G1 X97.339 Y11.523 E.03331
G1 X97.744 Y11.068 E.03331
G1 X98.175 Y10.637 E.03331
G1 X98.631 Y10.231 E.03331
G1 X99.109 Y9.853 E.03331
G1 X99.608 Y9.503 E.03331
G1 X100.127 Y9.183 E.03331
G1 X100.664 Y8.894 E.03331
G1 X100.948 Y8.762 E.01713
G1 X100.801 Y8.327 F18000
;TYPE:Outer wall
G1 F900
G1 X101.036 Y8.217 E.01418
G1 X101.627 Y7.982 E.03476
G1 X102.231 Y7.782 E.03476
G1 X102.845 Y7.618 E.03476
G1 X103.469 Y7.489 E.03477
G1 X104.098 Y7.397 E.03476
G1 X104.732 Y7.341 E.03476
G1 X105.372 Y7.323 E.03497
G1 X118.694 Y7.326 E.72793
G1 X119.204 Y7.341 E.02785
G1 X119.838 Y7.397 E.03476
G1 X120.467 Y7.489 E.03476
G1 X121.089 Y7.617 E.0347
G1 X121.827 Y7.823 E.04187
G1 X122.309 Y7.982 E.02771
G1 X122.899 Y8.217 E.03469
G1 X123.59 Y8.547 E.04187
G1 X124.037 Y8.788 E.02771
G1 X124.578 Y9.122 E.03476
G1 X125.099 Y9.487 E.03476
G1 X125.598 Y9.882 E.03476
G1 X126.074 Y10.305 E.03476
G1 X126.523 Y10.754 E.03476
G1 X126.946 Y11.23 E.03476
G1 X127.34 Y11.728 E.03469
G1 X127.774 Y12.36 E.04188
G1 X128.04 Y12.791 E.02771
G1 X128.342 Y13.351 E.03476
G1 X128.611 Y13.928 E.03476
G1 X128.846 Y14.519 E.03476
G1 X129.046 Y15.123 E.03476
G1 X129.21 Y15.738 E.03476
G1 X129.339 Y16.361 E.03477
G1 X129.431 Y16.99 E.03476
G1 X129.487 Y17.624 E.03476
G1 X129.505 Y18.425 E.04379
G1 X129.505 Y88.255 E3.81542
G1 X129.475 Y89.025 E.04208
G1 X129.431 Y89.53 E.02771
G1 X129.339 Y90.159 E.03476
G1 X129.211 Y90.781 E.0347
G1 X129.005 Y91.519 E.04187
G1 X128.846 Y92.001 E.02771
G1 X128.611 Y92.592 E.03476
G1 X128.342 Y93.169 E.03476
G1 X128.04 Y93.729 E.03476
G1 X127.706 Y94.27 E.03476
G1 X127.341 Y94.791 E.03476
G1 X126.946 Y95.29 E.03476
G1 X126.523 Y95.766 E.03476
G1 X126.074 Y96.216 E.03476
G1 X125.598 Y96.639 E.03476
G1 X125.099 Y97.033 E.03476
G1 X124.578 Y97.398 E.03476
G1 X124.036 Y97.732 E.03476
G1 X123.477 Y98.034 E.03476
G1 X122.9 Y98.303 E.03476
G1 X122.309 Y98.538 E.03476
G1 X121.705 Y98.738 E.03476
G1 X121.09 Y98.903 E.03476
G1 X120.468 Y99.031 E.0347
G1 X119.709 Y99.135 E.04187
G1 X119.204 Y99.179 E.02771
G1 X118.564 Y99.198 E.03497
G1 X105.372 Y99.198 E.72082
G1 X104.732 Y99.179 E.03497
G1 X104.098 Y99.124 E.03476
G1 X103.469 Y99.031 E.03476
G1 X102.845 Y98.903 E.03477
G1 X102.231 Y98.738 E.03476
M73 P1 R55
G1 X101.627 Y98.538 E.03476
G1 X101.036 Y98.303 E.03476
G1 X100.459 Y98.034 E.03476
G1 X99.899 Y97.732 E.03476
G1 X99.358 Y97.398 E.03476
G1 X98.836 Y97.033 E.03476
G1 X98.337 Y96.639 E.03476
G1 X97.862 Y96.216 E.03476
G1 X97.412 Y95.766 E.03476
G1 X96.989 Y95.29 E.03476
G1 X96.595 Y94.792 E.03469
G1 X96.162 Y94.16 E.04188
G1 X95.896 Y93.729 E.02771
G1 X95.594 Y93.169 E.03476
G1 X95.325 Y92.592 E.03476
G1 X95.09 Y92.001 E.03476
G1 X94.89 Y91.397 E.03476
G1 X94.725 Y90.782 E.03476
G1 X94.597 Y90.159 E.03477
G1 X94.504 Y89.53 E.03476
G1 X94.449 Y88.896 E.03476
G1 X94.43 Y88.256 E.03497
G1 X94.43 Y18.265 E3.82424
G1 X94.46 Y17.496 E.04208
G1 X94.504 Y16.99 E.02771
G1 X94.597 Y16.361 E.03476
G1 X94.725 Y15.739 E.0347
G1 X94.93 Y15.001 E.04187
G1 X95.09 Y14.519 E.02771
G1 X95.325 Y13.928 E.03476
G1 X95.594 Y13.351 E.03476
G1 X95.896 Y12.791 E.03476
G1 X96.23 Y12.25 E.03476
G1 X96.595 Y11.729 E.03476
G1 X96.989 Y11.23 E.03476
G1 X97.412 Y10.754 E.03476
G1 X97.862 Y10.305 E.03476
G1 X98.337 Y9.882 E.03476
G1 X98.836 Y9.487 E.03476
G1 X99.358 Y9.122 E.03476
G1 X99.899 Y8.788 E.03476
G1 X100.459 Y8.486 E.03476
G1 X100.755 Y8.348 E.01785
G1 E-3.5 F3000
;WIPE_START
G1 F900
G1 X101.036 Y8.217 E-.46416
G1 X101.627 Y7.982 E-.95434
G1 X101.679 Y7.965 E-.08151
;WIPE_END
G1 Z.72 F18000
G1 X121.775 Y66.834 Z.72
G1 Z.32
G1 E5 F3000
;TYPE:Inner wall
G1 F900
G1 X121.66 Y66.917 E.00777
G1 X121.204 Y67.145 E.02783
G1 X121.001 Y67.21 E.01167
G1 X120.497 Y67.287 E.02786
G1 X119.836 Y67.218 E.03632
G1 X119.569 Y67.122 E.0155
G1 X119.116 Y66.899 E.02758
G1 X118.593 Y66.417 E.03887
G1 X118.468 Y66.244 E.01165
G1 X118.237 Y65.79 E.02782
G1 X118.113 Y65.213 E.03223
G1 X118.089 Y64.886 E.01794
G1 X118.171 Y64.366 E.02877
G1 X118.237 Y64.163 E.01166
G1 X118.468 Y63.708 E.02787
G1 X118.593 Y63.535 E.01167
G1 X118.952 Y63.174 E.02783
G1 X119.125 Y63.048 E.01166
G1 X119.578 Y62.815 E.02786
G1 X119.781 Y62.748 E.01167
G1 X120.284 Y62.666 E.02783
G1 X120.497 Y62.665 E.01165
G1 X121.001 Y62.742 E.02784
G1 X121.204 Y62.806 E.01166
G1 X121.66 Y63.035 E.02784
G1 X121.842 Y63.167 E.01231
G1 X122.233 Y63.566 E.03052
G1 X122.563 Y64.147 E.03651
G1 X122.711 Y64.839 E.03866
G1 X122.712 Y65.059 E.01202
G1 X122.628 Y65.601 E.02999
G1 X122.559 Y65.812 E.01212
G1 X122.324 Y66.264 E.02783
G1 X122.197 Y66.436 E.01167
G1 X121.833 Y66.793 E.02785
G1 X121.816 Y66.805 E.00115
G1 X121.513 Y66.468 F18000
;TYPE:Outer wall
G1 F900
G1 X121 Y66.737 E.03167
G1 X120.428 Y66.836 E.03171
G1 X119.904 Y66.766 E.02886
G1 X119.337 Y66.5 E.03425
G1 X118.916 Y66.095 E.03192
G1 X118.644 Y65.583 E.03167
G1 X118.543 Y65.011 E.03174
G1 X118.622 Y64.437 E.03167
G1 X118.875 Y63.915 E.03171
G1 X119.276 Y63.496 E.03167
G1 X119.787 Y63.221 E.03171
G1 X120.357 Y63.116 E.03167
G1 X120.932 Y63.193 E.03168
G1 X121.455 Y63.443 E.03169
G1 X121.907 Y63.886 E.03457
G1 X122.155 Y64.353 E.02892
G1 X122.261 Y64.915 E.03127
G1 X122.177 Y65.531 E.03395
G1 X121.919 Y66.053 E.03182
G1 X121.548 Y66.432 E.02897
G1 E-3.5 F3000
;WIPE_START
G1 F900
G1 X121 Y66.737 E-.94116
G1 X120.633 Y66.801 E-.55884
;WIPE_END
G1 Z.72 F18000
G1 X101.968 Y62.992 Z.72
G1 Z.32
G1 E5 F3000
;TYPE:Inner wall
G1 F900
G1 X102.351 Y62.77 E.02419
G1 X102.892 Y62.657 E.0302
G1 X104.164 Y62.657 E.06949
G1 X104.576 Y62.714 E.02274
G1 X105.057 Y62.909 E.02833
G1 X105.461 Y63.25 E.02887
G1 X105.727 Y63.68 E.02766
G1 X105.809 Y63.903 E.01298
G1 X105.881 Y64.374 E.02606
G1 X105.881 Y65.577 E.06573
G1 X105.824 Y65.99 E.02274
G1 X105.694 Y66.348 E.02082
G1 X105.583 Y66.533 E.01181
G1 X105.234 Y66.919 E.02842
G1 X104.789 Y67.176 E.02807
G1 X104.234 Y67.295 E.031
G1 X102.961 Y67.295 E.06958
G1 X102.553 Y67.239 E.02249
G1 X102.118 Y67.073 E.02545
G1 X101.661 Y66.698 E.03233
G1 X101.357 Y66.189 E.03237
G1 X101.244 Y65.585 E.0336
G1 X101.244 Y64.368 E.0665
G1 X101.298 Y63.977 E.02156
G1 X101.484 Y63.499 E.02802
G1 X101.873 Y63.046 E.0326
G1 X101.925 Y63.017 E.00324
G1 X102.192 Y63.379 F18000
;TYPE:Outer wall
G1 F900
G1 X102.574 Y63.178 E.02359
G1 X102.961 Y63.113 E.02144
G1 X104.164 Y63.113 E.06573
G1 X104.42 Y63.143 E.01409
G1 X104.826 Y63.305 E.02391
G1 X105.153 Y63.597 E.02391
G1 X105.359 Y63.982 E.0239
G1 X105.425 Y64.374 E.02172
G1 X105.425 Y65.577 E.06573
G1 X105.396 Y65.834 E.01409
G1 X105.27 Y66.178 E.02003
G1 X104.946 Y66.563 E.02749
G1 X104.556 Y66.773 E.02421
G1 X104.164 Y66.838 E.02172
G1 X102.961 Y66.838 E.06573
G1 X102.708 Y66.81 E.01393
G1 X102.306 Y66.651 E.02358
G1 X101.982 Y66.366 E.02361
G1 X101.772 Y65.987 E.02364
G1 X101.7 Y65.585 E.02236
G1 X101.7 Y64.368 E.0665
G1 X101.727 Y64.133 E.01292
G1 X101.901 Y63.698 E.02556
G1 X102.158 Y63.416 E.02088
G1 E-3.5 F3000
;WIPE_START
G1 F900
G1 X102.574 Y63.178 E-.71872
G1 X102.961 Y63.113 E-.58849
G1 X103.09 Y63.113 E-.19279
;WIPE_END
G1 Z.72 F18000
G1 X124.268 Y9.629 Z.72
G1 Z.32
G1 E5 F3000
;TYPE:Bottom surface
;WIDTH:0.525891
G1 F1200
G1 X125.948 Y11.309 E.13004
G1 X126.334 Y11.743 E.03182
G1 X126.697 Y12.202 E.032
G1 X127.104 Y12.795 E.03941
G1 X127.348 Y13.191 E.02543
G1 X127.541 Y13.548 E.02225
G1 X123.279 Y9.287 E.32993
G1 X122.579 Y8.949 E.0426
G1 X122.107 Y8.762 E.02776
G1 X128.066 Y14.721 E.46135
G1 X128.28 Y15.352 E.03652
G1 X128.364 Y15.665 E.01772
G1 X121.167 Y8.468 E.55721
G1 X120.901 Y8.394 E.01513
G1 X120.328 Y8.276 E.03202
G1 X128.552 Y16.5 E.63673
G1 X128.652 Y17.246 E.04122
G1 X119.582 Y8.176 E.70223
G1 X118.89 Y8.131 E.03794
G1 X128.697 Y17.938 E.75925
G1 X128.707 Y18.594 E.03594
M73 P2 R55
G1 X118.238 Y8.125 E.81055
G1 X117.591 Y8.125 E.03541
G1 X128.707 Y19.241 E.86062
G1 X128.707 Y19.887 E.0354
G1 X116.944 Y8.124 E.9107
G1 X116.297 Y8.124 E.03541
G1 X128.707 Y20.534 E.96078
G1 X128.707 Y21.18 E.0354
G1 X115.65 Y8.124 E1.01085
G1 X115.004 Y8.124 E.03541
G1 X128.707 Y21.827 E1.06093
G1 X128.707 Y22.474 E.0354
G1 X114.357 Y8.124 E1.111
G1 X113.71 Y8.124 E.03541
G1 X128.707 Y23.12 E1.16108
G1 X128.707 Y23.767 E.0354
G1 X113.063 Y8.123 E1.21115
G1 X112.416 Y8.123 E.03541
G1 X128.707 Y24.413 E1.26123
G1 X128.707 Y25.06 E.0354
G1 X111.77 Y8.123 E1.3113
G1 X111.123 Y8.123 E.03541
G1 X128.707 Y25.707 E1.36138
G1 X128.707 Y26.353 E.0354
G1 X110.476 Y8.123 E1.41146
G1 X109.829 Y8.122 E.03541
G1 X128.707 Y27 E1.46153
G1 X128.707 Y27.646 E.0354
G1 X109.183 Y8.122 E1.51161
G1 X108.536 Y8.122 E.03541
G1 X128.707 Y28.293 E1.56168
G1 X128.707 Y28.94 E.0354
G1 X107.889 Y8.122 E1.61176
G1 X107.242 Y8.122 E.03541
G1 X128.707 Y29.586 E1.66183
G1 X128.707 Y30.233 E.0354
G1 X106.595 Y8.121 E1.71191
G1 X105.949 Y8.121 E.03541
G1 X128.707 Y30.879 E1.76199
G1 X128.707 Y31.526 E.0354
G1 X105.307 Y8.127 E1.81165
G1 X104.681 Y8.147 E.03428
G1 X128.707 Y32.173 E1.8601
G1 X128.707 Y32.819 E.0354
G1 X104.092 Y8.205 E1.90572
G1 X103.532 Y8.291 E.03102
G1 X128.707 Y33.466 E1.94908
G1 X128.707 Y34.113 E.0354
G1 X102.998 Y8.403 E1.99045
G1 X102.488 Y8.54 E.0289
G1 X128.707 Y34.759 E2.02993
G1 X128.707 Y35.406 E.0354
M73 P3 R55
G1 X102.001 Y8.7 E2.06763
G1 X101.533 Y8.879 E.02741
G1 X128.707 Y36.052 E2.10383
G1 X128.707 Y36.699 E.0354
G1 X101.084 Y9.076 E2.13863
G1 X100.651 Y9.29 E.02642
G1 X128.707 Y37.346 E2.17213
G1 X128.707 Y37.992 E.0354
M73 P3 R54
G1 X100.234 Y9.52 E2.2044
G1 X99.834 Y9.766 E.02572
G1 X128.707 Y38.639 E2.23537
G1 X128.707 Y39.285 E.0354
G1 X99.452 Y10.031 E2.26495
G1 X99.084 Y10.309 E.02527
G1 X128.707 Y39.932 E2.29345
G1 X128.707 Y40.579 E.0354
G1 X98.73 Y10.601 E2.32089
G1 X98.389 Y10.907 E.02507
G1 X128.707 Y41.225 E2.34728
G1 X128.707 Y41.872 E.0354
G1 X98.065 Y11.23 E2.37231
G1 X97.757 Y11.568 E.02506
G1 X128.707 Y42.518 E2.39621
G1 X128.707 Y43.165 E.0354
G1 X97.462 Y11.92 E2.41906
G1 X97.18 Y12.285 E.02524
G1 X128.707 Y43.812 E2.44086
G1 X128.707 Y44.458 E.0354
G1 X96.914 Y12.665 E2.46148
G1 X96.666 Y13.064 E.0257
G1 X128.707 Y45.105 E2.48067
G1 X128.707 Y45.751 E.0354
M73 P4 R54
G1 X96.433 Y13.478 E2.4987
G1 X96.216 Y13.907 E.02634
G1 X128.707 Y46.398 E2.51552
G1 X128.707 Y47.045 E.0354
G1 X96.015 Y14.353 E2.53104
G1 X95.833 Y14.817 E.0273
G1 X128.707 Y47.691 E2.54518
G1 X128.707 Y48.338 E.0354
G1 X95.675 Y15.306 E2.55742
G1 X95.534 Y15.811 E.02874
G1 X128.707 Y48.984 E2.56832
G1 X128.707 Y49.631 E.0354
G1 X95.416 Y16.34 E2.57742
G1 X95.325 Y16.896 E.03082
G1 X128.707 Y50.278 E2.58446
G1 X128.707 Y50.924 E.0354
G1 X95.263 Y17.481 E2.58928
G1 X95.236 Y18.1 E.03394
G1 X128.707 Y51.571 E2.59138
G1 X128.707 Y52.217 E.0354
G1 X95.229 Y18.74 E2.59193
G1 X95.229 Y19.386 E.0354
G1 X128.707 Y52.864 E2.59193
G1 X128.707 Y53.511 E.0354
G1 X95.229 Y20.033 E2.59193
G1 X95.229 Y20.679 E.0354
